X: 1
T: Men of Argyll
C: John MacLellan
Z: Hiroyuki Yamada
M: 4/4
L: 1/8
D: "Keep it Up"
N: This is a Scottish pipe march.
Z: Contributed 20040529212235 by Hiroyuki Yamada slainte_mha@infoseek.jp
K: Bmin
f>e|d2 B2 B2 d>e|f2 a2 f2 e>d|c2 A2 A2 A>B|c>Ac>d e>gf>e|
d2 c>d B2 d>e|f2 a2 f2 d>e|f>ef<a c2 A2|1 B4-B2:|2 B4-B g||
f>g|a2 d2 f2 e>d|f2 a2 f2 c>d|e2 A2 c2 c>d|e>cA<c e>gf>g|
a2 d2 f2 e>d|f2 a2 f2 d>e|f>ef<a c2 A2|1 B4-B g:|2 B4-B2||
f2|B4 c>Bc<e|f>ef<a f2 e>c|A4 B>AA>B|c>Ac<e f>ec<A|
B4 c>Bc<e|f>ef<a e2 c>e|f>ef<a c2 A2|B4-B2:|
d>e|f2 B2 f2 f>e|f>ef<a f2 e>c|e2 A2 e2 e>f|e>cA<c A>Bc<e|
f2 B2 f2 f>e|f>ef<a e2 c>e|f>ef<a c2 A2|B4-B2:|
